X: 1
T: Lakes Of Sligo, The
M: 2/4
L: 1/8
R: polka
K: Dmin
|: FA A{B}c | d2 dc | B>A B{c}d | e2 ef |
FA A{B}c | de f>e | dB Af | e{f}e d2 :|
|: fa d>e | fa a{g}f | gb ef | gb ba |
fa e{f}e | de f>e | db af | e{f}e d2 :|
